src/assets/img/catalog-single/block.svg

<svg width="45" height="45" viewBox="0 0 45 45" fill="none" xmlns="http://www.w3.org/2000/svg">
<path d="M22.5004 0L3.01465 11.25V33.7498L22.5004 44.9999L41.9857 33.7498V11.25L22.5004 0ZM38.03 12.011L22.5004 20.9732L6.97038 12.011L22.5004 3.04478L38.03 12.011ZM5.65151 14.2942L21.182 23.2568V41.194L5.65151 32.2275V14.2942ZM23.8188 41.194V23.2568L39.3489 14.2943V32.2276L23.8188 41.194Z" fill="black" fill-opacity="0.8"/>
</svg>

<svg width="45" height="45" fill="none" xmlns="http://www.w3.org/2000/svg"><path d="M22.5 0L3.015 11.25v22.5L22.5 45l19.486-11.25v-22.5L22.5 0zm15.53 12.011L22.5 20.973 6.97 12.011 22.5 3.045l15.53 8.966zM5.652 14.294l15.53 8.963v17.937l-15.53-8.967V14.294zm18.167 26.9V23.257l15.53-8.963v17.934l-15.53 8.966z" fill="#000" fill-opacity=".8"/></svg>
